paymentMethods/stellar.svg

<svg width="128" height="64" viewBox="0 0 128 64" fill="none" xmlns="http://www.w3.org/2000/svg">
<rect width="128" height="64" rx="6" fill="white"/>
<path d="M39.3731 22.7747L35.8172 24.5882L18.6381 33.3382C18.5816 32.8951 18.553 32.449 18.5522 32.0024C18.5527 30.2187 19.0196 28.4662 19.9066 26.9187C20.7936 25.3713 22.0698 24.0827 23.6087 23.1809C25.1476 22.2791 26.8955 21.7954 28.6791 21.7778C30.4626 21.7602 32.2198 22.2094 33.7761 23.0807L35.8134 22.0434L36.1157 21.8867C34.2505 20.5327 32.0472 19.7207 29.7494 19.5406C27.4516 19.3604 25.1487 19.8191 23.0953 20.8659C21.0418 21.9127 19.3178 23.5068 18.1137 25.4722C16.9096 27.4375 16.2724 29.6975 16.2724 32.0024C16.2724 32.3195 16.2724 32.6367 16.3097 32.9538C16.3428 33.401 16.2433 33.8481 16.0236 34.239C15.8039 34.6299 15.4738 34.9473 15.0746 35.1516L14 35.7001V38.2561L17.1604 36.6441L18.1866 36.1068L19.194 35.5919L37.306 26.3792L39.3395 25.3419L43.5485 23.2001V20.6479L39.3731 22.7747Z" fill="black"/>
<path d="M43.5485 25.756L20.2239 37.6291L18.1866 38.6702L14 40.8045V43.353L18.1604 41.2373L21.7164 39.4239L38.9142 30.659C39.1638 32.5426 38.884 34.4585 38.1061 36.1921C37.3282 37.9257 36.0829 39.4084 34.5098 40.474C32.9366 41.5397 31.0978 42.1462 29.1994 42.2257C27.3009 42.3052 25.4179 41.8544 23.7612 40.9239L23.6381 40.9911L21.4291 42.1105C23.2938 43.4652 25.4967 44.2779 27.7945 44.4589C30.0922 44.6399 32.3952 44.1821 34.4491 43.1361C36.5029 42.0901 38.2275 40.4966 39.4323 38.5317C40.6371 36.5668 41.2752 34.3071 41.2761 32.0022C41.2761 31.6814 41.2761 31.3605 41.2388 31.0396C41.2047 30.5922 41.3038 30.1448 41.5236 29.7537C41.7434 29.3626 42.074 29.0453 42.4739 28.8418L43.5485 28.297V25.756Z" fill="black"/>
<path d="M78.6791 27.5247C75.1119 27.5247 72.3358 30.1366 72.3358 34.2933C72.3358 38.1553 74.6194 41.1142 78.7463 41.1142C81.9254 41.1142 84.0112 39.2485 84.5933 37.0097H82.3209C81.7612 38.297 80.694 39.1702 78.7537 39.1702C76.8134 39.1702 74.7948 37.8194 74.7239 34.9873H84.7724C85.0373 30.853 82.6828 27.5247 78.6791 27.5247ZM74.7463 33.1217C74.9403 30.5097 76.7351 29.4314 78.6791 29.4314C81.0336 29.4314 82.3694 31.2747 82.4403 33.1217H74.7463Z" fill="black"/>
<path d="M58.9104 30.7077L56.8806 30.245C55.2238 29.8718 54.0037 29.1032 54.0037 27.5509C54.0037 25.5845 56.3768 24.9801 57.735 24.9801C59.485 24.9801 61.5186 25.6815 62.1044 27.6965H64.5074C63.8022 24.3196 61.0074 22.8905 57.8321 22.8905C54.9925 22.8905 51.4888 24.3233 51.4888 27.6965C51.4888 30.6069 53.888 31.9689 56.3171 32.5024L58.5112 32.9651C60.7201 33.4726 62.2985 34.2002 62.2985 36.0696C62.2985 37.8196 60.8059 39.0323 58.194 39.0323C55.4515 39.0323 53.7985 37.7711 53.3433 35.342H50.903C51.3619 38.842 53.985 41.1181 58.1343 41.1181C61.6343 41.1181 64.8507 39.2748 64.8507 35.8532C64.8358 32.3084 61.6082 31.2898 58.9104 30.7077Z" fill="black"/>
<path d="M69.597 24.4688H67.3581V27.7449H65.3059V29.5173H67.3581V37.5284C67.3581 40.2449 67.9402 40.8046 70.4402 40.8046H72.041V38.9389H70.9216C69.6604 38.9389 69.5634 38.5993 69.5634 37.2411V29.5173H72.0372V27.7449H69.597V24.4688Z" fill="black"/>
<path d="M113.343 27.6741C111.619 27.7449 110.31 28.5472 109.657 30.0248V27.7449H107.496V40.8046H109.705V33.9576C109.705 31.0472 110.724 29.9576 112.761 29.9576C113.176 29.9583 113.59 29.9907 114 30.0546V27.6964C113.782 27.6777 113.562 27.6703 113.343 27.6741V27.6741Z" fill="black"/>
<path d="M105.369 35.8792L105.392 32.8717C105.418 29.1404 103.866 27.4836 100.198 27.4836C97.6754 27.4836 95.1492 29.0583 94.9739 31.8754H97.2574C97.3545 30.2486 98.3768 29.2635 100.243 29.2635C101.892 29.2635 103.201 30.0396 103.201 32.4426V32.756C97.8619 33.3419 94.3694 34.2486 94.3694 37.3456C94.3694 39.7486 96.4067 41.1068 98.847 41.1068C101.179 41.1068 102.511 40.3605 103.325 38.9986C103.343 39.5997 103.399 40.1991 103.493 40.7933H105.731C105.429 39.1738 105.307 37.5256 105.369 35.8792V35.8792ZM103.354 35.3605C103.354 38.4426 101.388 39.3904 99.3246 39.3904C97.7462 39.3904 96.8022 38.5657 96.8022 37.3269C96.8022 35.5284 99.347 34.9239 103.354 34.5359V35.3605Z" fill="black"/>
<path d="M88.4664 23.1964H86.2574V40.8046H88.4664V23.1964Z" fill="black"/>
<path d="M92.8842 23.1964H90.6753V40.8046H92.8842V23.1964Z" fill="black"/>
</svg>

<svg xmlns="http://www.w3.org/2000/svg" width="128" height="64" fill="none"><rect width="128" height="64" fill="#fff" rx="6"/><path fill="#000" d="m39.373 22.775-3.556 1.813-17.179 8.75A10.229 10.229 0 0 1 33.776 23.08l2.037-1.037.303-.156a12.5 12.5 0 0 0-19.844 10.115c0 .317 0 .635.038.952a2.28 2.28 0 0 1-1.235 2.198L14 35.7v2.556l3.16-1.612 1.027-.537 1.007-.515 18.112-9.213 2.034-1.037 4.208-2.142v-2.552l-4.175 2.127ZM43.548 25.756 20.224 37.629l-2.037 1.041L14 40.804v2.549l4.16-2.116 3.556-1.813 17.198-8.765a10.232 10.232 0 0 1-15.153 10.265l-.123.067-2.209 1.12a12.5 12.5 0 0 0 19.847-10.109c0-.32 0-.642-.037-.962a2.272 2.272 0 0 1 1.235-2.198l1.075-.545v-2.541ZM78.68 27.525c-3.568 0-6.344 2.612-6.344 6.768 0 3.862 2.283 6.821 6.41 6.821 3.18 0 5.265-1.865 5.847-4.104h-2.272c-.56 1.287-1.627 2.16-3.567 2.16-1.94 0-3.96-1.35-4.03-4.183h10.048c.265-4.134-2.09-7.462-6.093-7.462Zm-3.934 5.597c.194-2.612 1.99-3.69 3.933-3.69 2.355 0 3.69 1.843 3.761 3.69h-7.694ZM58.91 30.708l-2.03-.463c-1.656-.373-2.876-1.142-2.876-2.694 0-1.966 2.373-2.57 3.731-2.57 1.75 0 3.784.7 4.37 2.715h2.402c-.705-3.376-3.5-4.806-6.675-4.806-2.84 0-6.343 1.433-6.343 4.806 0 2.91 2.399 4.273 4.828 4.806l2.194.463c2.21.508 3.787 1.235 3.787 3.105 0 1.75-1.492 2.962-4.104 2.962-2.742 0-4.396-1.26-4.85-3.69h-2.441c.459 3.5 3.082 5.776 7.231 5.776 3.5 0 6.717-1.843 6.717-5.265-.015-3.545-3.243-4.563-5.94-5.145ZM69.597 24.469h-2.239v3.276h-2.052v1.772h2.052v8.011c0 2.717.582 3.277 3.082 3.277h1.601v-1.866h-1.12c-1.26 0-1.358-.34-1.358-1.698v-7.724h2.474v-1.772h-2.44v-3.276ZM113.343 27.674c-1.724.07-3.033.873-3.686 2.35v-2.28h-2.161v13.06h2.209v-6.846c0-2.91 1.019-4 3.056-4 .415 0 .829.033 1.239.097v-2.359a6.4 6.4 0 0 0-.657-.022ZM105.369 35.88l.023-3.008c.026-3.732-1.526-5.388-5.194-5.388-2.523 0-5.049 1.574-5.224 4.391h2.283c.097-1.626 1.12-2.611 2.986-2.611 1.649 0 2.958.776 2.958 3.179v.313c-5.34.586-8.832 1.493-8.832 4.59 0 2.403 2.038 3.76 4.478 3.76 2.332 0 3.664-.745 4.478-2.107.018.6.074 1.2.168 1.794h2.238a22.242 22.242 0 0 1-.362-4.914Zm-2.015-.52c0 3.083-1.966 4.03-4.03 4.03-1.578 0-2.522-.824-2.522-2.063 0-1.799 2.545-2.403 6.552-2.791v.825ZM88.466 23.196h-2.209v17.609h2.21V23.196ZM92.884 23.196h-2.209v17.609h2.21V23.196Z"/></svg>
